X:304
T:Toss the Feathers (reel) 
B:CRE2.291 (Craith na CleitÃÂÃÂÃÂÃÂ­)
F:file ID: cre.2/304toss_f
S:Jim Mulqueeny (Clare)
L:1/8
M:C
R:reel
Q:180
K:Em
EDEB BABE|EDEG FDDF|EDEB BABd|egfe dBAF|
EDEB BABE|EDEG FDDF|EDEB BABd|egfe dBAB||
Beed efge|f2df afdf|gbag fagf|egfe dBBA|
Beed efge|f2df afdf|gbag fagf|egfe dBAF||

%%%

